!!!!SEGMENT: pl-kk--kk-i-7--046-001_luython-carl--missa-kyrie.krn
!!!cenid: 16xx:848
!!!COM: Luython, Carl
!!!COM-rismID: pe30012976
!!!CDT: ~1557-1620
!!!CNT:
!!!OPR: Missa
!!!OTL: Kyrie
!!!OMV: 001
!!!PDT:
!!!AGN: Sacred; Mass
!!!SMS-siglum: PL-Kk
!!!SMS-shelfmark: Kk.I.7
!!!SMS-shelfwork: 046-001 M
!!!SMS-variant:
!!!SMS-altvar:
!!!NIFC-rismSourceID: 300258077
!!!NIFC-rismChildID: 300258123
!!!NIFC-islandoraID: pl-kk:1956
!!!URL-pdf-islandora: https://repozytorium.nifc.pl/islandora/object/pl-kk%3A1956/datastream/PDF/view
!!!URL-scan: https://polish.musicsources.pl/pl/lokalizacje/galeria/rekopisy/6140 @EN{Scan on Polish Music Sources Website} @PL{Skany w portalu Dziedzictwo Muzyki Polskiej w otwartym dostępie}
!!!IIIF: https://repozytorium.nifc.pl/islandora/object/pl-kk%3A1956/datastream/IIIF/view
!!!ONB-nifc: UWAGA: C (skan 0041, s.76), A (0125, s.70), T (0201, s.66), B (0290-0291, s.67-68). Części Mszy: 1. Kyrie, 2. Et in terra, 3. Sanctus, 4. Agnus Dei
!!!AIN: 1 alto 1 bass 1 soprn 1 tenor
!!!key:
**kern	**text	**kern	**text	**kern	**text	**kern	**text
*part4	*part4	*part3	*part3	*part2	*part2	*part1	*part1
*staff4	*staff4	*staff3	*staff3	*staff2	*staff2	*staff1	*staff1
*Ibass	*	*Itenor	*	*Ialto	*	*Isoprn	*
*I"BASSVS.	*	*I"TENOR.	*	*I"ALTVS.	*	*I"CANTVS.	*
*I'B	*	*I'T	*	*I'A	*	*I'S	*
*clefF4	*	*clefC4	*	*clefC3	*	*clefC3	*
*k[b-]	*	*k[b-]	*	*k[b-]	*	*k[b-]	*
*g:	*	*g:	*	*g:	*	*g:	*
*M2/1	*	*M2/1	*	*M2/1	*	*M2/1	*
*met(C|)	*	*met(C|)	*	*met(C|)	*	*met(C|)	*
=1-	=1-	=1-	=1-	=1-	=1-	=1-	=1-
*xywh-#290:7236,2068,5779,816	*	*xywh-#201:1027,475,6050,1046	*	*xywh-#125:1372,539,5882,1067	*	*xywh-#41:1171,643,5897,1063	*
!LO:TX:a:t=Miſsa 4dri=Voca II. à 2 altis. Ten&colon; Baſso.	!	!LO:TX:a:t=Miſsa 4dri=Voca II. à 2b(us) altis.	!	!LO:TX:a:t=Miſsa 4dri voca II. 2b(us) altis.	!	!LO:TX:a:t=Miſsa 4dri=Voca II. à 2b(us) altis.	!
!LO:TX:a:t=P:problem=znaki BB- B-	!	!LO:TX:a:t=N3 Ten I.	!	!LO:TX:a:t=N3. Baſo I.	!	!LO:TX:a:t=N3 Teno 2.	!
1.G	Ky-	2r	.	2r	.	2re	.
.	.	1B-	Ky-	1d	Ky-	1g	Ky-
*2\right	*	*2\right	*	*2\right	*	*2\right	*
!LO:TX:t=P:problem=kreska pseudotaktowa	!	!LO:TX:t=P:problem=kreska pseudotaktowa	!	!LO:TX:t=P:problem=kreska pseudotaktowa	!	!LO:TX:t=P:problem=kreska pseudotaktowa	!
2F\	-ri-	2A\	-ri-	2d\	-ri-	2d\	-ri-
=2-	=2-	=2-	=2-	=2-	=2-	=2-	=2-
2E-X\	-e	2B-\	-e	2G/	-e	2g\	-e
!LO:TX:t=P:problem=kreska pseudotaktowa	!	!	!	!	!	!	!
2C/	e-	2c\	e-	2g\	e-	2e-X\	e-
1G	-lei-	1B-	-lei-	1g	-lei-	1d	-lei-
=3-	=3-	=3-	=3-	=3-	=3-	=3-	=3-
!LO:TX:t=P:problem=kreska pseudotaktowa	!	!LO:TX:t=P:problem=kreska pseudotaktowa	!	!LO:TX:t=P:problem=kreska pseudotaktowa	!	!LO:TX:t=P:problem=kreska pseudotaktowa	!
1D,	-son	1A	-son	1f#X	-son	1d	-son
1.D	Ky-	2r	.	2r	.	2r	.
*	*	*	*ij	*	*	*	*ij
.	.	1A\	Ky-	1d\	Ky-	1f\	Ky-
=4-	=4-	=4-	=4-	=4-	=4-	=4-	=4-
.	.	.	.	.	.	.	.
!LO:TX:t=P:problem=kreska pseudotaktowa	!	!LO:TX:t=P:problem=kreska pseudotaktowa	!	!LO:TX:t=P:problem=kreska pseudotaktowa	!	!LO:TX:t=P:problem=kreska pseudotaktowa	!
2C/	-ri-	2A\	-ri-	2A/	-ri-	2eny\	-ri-
2BB-/	-e	2D/	-e	2d\	-e	2f\	-e
!LO:TX:t=P:problem=kreska pseudotaktowa	!	!	!	!	!	!	!
2GG/	e-	2d\	e-	2B-/	e-	2g\	e-
=5-	=5-	=5-	=5-	=5-	=5-	=5-	=5-
1D	-lei-	1d	-lei-	1A	-lei-	1f	-lei-
!LO:TX:t=P:problem=kreska pseudotaktowa	!	!LO:TX:t=P:problem=kreska pseudotaktowa	!	!LO:TX:t=P:problem=kreska pseudotaktowa	!	!LO:TX:t=P:problem=kreska pseudotaktowa	!
1AA,	-son	1c#X,	-son	1A	-son	1e	-son
*	*	*	*Xij	*	*	*	*Xij
=6-	=6-	=6-	=6-	=6-	=6-	=6-	=6-
1.BB-	Ky-	2.d\	Ky-	2r	.	2r	.
.	.	.	.	1fny	Ky-	1d	Ky-
.	.	4cny\	-ri-	.	.	.	.
.	.	2B-\	-e	.	.	.	.
!LO:TX:t=P:problem=kreska pseudotaktowa	!	!LO:TX:t=P:problem=kreska pseudotaktowa	!	!LO:TX:t=P:problem=kreska pseudotaktowa	!	!LO:TX:t=P:problem=kreska pseudotaktowa	!
2C/	-rie	2G/	e-	2e-X\	-ri-	2c/	-ri-
=7-	=7-	=7-	=7-	=7-	=7-	=7-	=7-
2D\	e-	4B-\	-lei-	2d\	-e	2F/	-e
.	.	4A\	.	.	.	.	.
2E-X\	-lei-	2.G/	.	2c\	e-	2G/	e-
1D	.	.	.	1d	-lei-	1A	-lei-
.	.	8F#X/L	.	.	.	.	.
.	.	8E/J	.	.	.	.	.
.	.	2F#X/	.	.	.	.	.
=8-	=8-	=8-	=8-	=8-	=8-	=8-	=8-
0GGl;	-son.	0Gl;	-son.	0Bnl;	-son	0Gl;\	-son.
!	!	!LO:LB:g=original	!	!	!	!	!
=9||	=9||	=9||	=9||	=9||	=9||	=9||	=9||
*M2/1	*	*M2/1	*	*M2/1	*	*M2/1	*
*met(C|)	*	*met(C|)	*	*met(C|)	*	*met(C|)	*
*	*	*xywh-#201:1277,1341,5676,720	*	*	*	*	*
2.GG/	Chri-	2rG	.	2rB	.	0d	Chri-
.	.	1G	Chri-	1B-	Chri-	.	.
4AA/	.	.	.	.	.	.	.
4BB-/	.	.	.	.	.	.	.
4C/	.	.	.	.	.	.	.
!LO:TX:t=P:problem=kreska pseudotaktowa	!	!LO:TX:t=P:problem=kreska pseudotaktowa	!	!LO:TX:t=P:problem=kreska pseudotaktowa	!	!	!
2D\	.	2F#X/	-ste	2A/	-ste	.	.
=10-	=10-	=10-	=10-	=10-	=10-	=10-	=10-
2GG,/	-ste	2.B-\	e-	2.G/	e-	1.d	-ste
!LO:TX:t=P::problem=kreska pseudotaktowa&colon;między nutą a kropką, połączone ligaturą	!	!	!	!	!	!	!
2.G\	e-	.	.	.	.	.	.
.	.	4A\	.	4A/	.	.	.
.	.	2G/	.	4B-/	.	.	.
4F\	.	.	.	4c/	.	.	.
!	!	!	!	!	!	!LO:TX:t=P:problem=kreska pseudotaktowa	!
4E-X\	.	1B-\	-lei-	1d\	-lei-	2d\	e-
4D\	.	.	.	.	.	.	.
=11-	=11-	=11-	=11-	=11-	=11-	=11-	=11-
1E-X	-lei-	.	.	.	.	1G	-lei-
.	.	4A/	.	2c\	.	.	.
!	!	!LO:TX:t=P:problem=kreska pseudotaktowa	!	!	!	!	!
.	.	4G/	.	.	.	.	.
!LO:TX:t=P:problem=kreska pseudotaktowa	!	!	!	!LO:TX:t=P:problem=kreska pseudotaktowa	!	!LO:TX:t=P:problem=kreska pseudotaktowa	!
1D	-son	2A\	.	1d	-son	1F#X	-son
!	!	!LO:TX:t=P:problem=kreska pseudotaktowa	!	!	!	!	!
.	.	2A\	-son	.	.	.	.
!LO:LB:g=original	!	!	!	!LO:LB:g=original	!	!	!
=12-	=12-	=12-	=12-	=12-	=12-	=12-	=12-
*xywh-#290:7128,2750,6066,664	*	*	*	*xywh-#125:1415,1403,5817,675	*	*	*
00r	.	2.D/	Chri-	2rf	.	2r	.
.	.	.	.	1f	Chri-	1d	Chri-
.	.	4E/	.	.	.	.	.
.	.	4Fny/	-ste	.	.	.	.
.	.	4G/	.	.	.	.	.
!	!	!LO:TX:t=P:problem=kreska pseudotaktowa	!	!	!	!LO:TX:t=P:problem=kreska pseudotaktowa	!
.	.	2A/	.	2e\	.	2c#X\	-ste
=13-	=13-	=13-	=13-	=13-	=13-	=13-	=13-
!	!	!	!	!LO:TX:t=P:problem=kreska pseudotaktowa	!	!	!
.	.	2D/	.	1d	-ste	2.f\	e-
.	.	2d\	e-	.	.	.	.
*	*	*	*	*	*	*custos:d	*
!	!	!	!	!	!	!LO:TX:t=P:problem=kreska pseudotaktowa	!
.	.	.	.	.	.	4e\	.
!	!	!	!	!	!	!LO:LB:g=original	!
*	*	*	*	*	*	*xywh-#41:1308,1484,5773,711	*
.	.	4d\	-lei-	1.f	e-	1d	-e-
.	.	4c\	.	.	.	.	.
.	.	4B-\	.	.	.	.	.
!	!	!LO:TX:t=P:problem=kreska pseudotaktowa	!	!	!	!	!
.	.	4A\	.	.	.	.	.
=14-	=14-	=14-	=14-	=14-	=14-	=14-	=14-
!LO:TX:t=P:problem=kreska pseudotaktowa	!	!	!	!	!	!	!
0r	.	1B-	.	.	.	1d	-lei-
.	.	.	.	4e\	.	.	.
!	!	!	!	!LO:TX:t=P:problem=kreska pseudotaktowa	!	!	!
.	.	.	.	4d\	.	.	.
!	!	!LO:TX:t=P:problem=kreska pseudotaktowa	!	!	!	!LO:TX:t=P:problem=kreska pseudotaktowa	!
.	.	1A	-son,	2e\	-lei-	1c#X	-son
.	.	.	.	2e\	.	.	.
=15-	=15-	=15-	=15-	=15-	=15-	=15-	=15-
2.D/	Chri-	1F#X	Chri-	1A,	-son	1.d	Chri-
4C/	.	.	.	.	.	.	.
4BB-/	.	2.G/	-ste	2.B-/	Chri-	.	.
4AA/	.	.	.	.	.	.	.
!LO:TX:t=P:problem=kreska pseudotaktowa	!	!	!	!	!	!LO:TX:t=P:problem=kreska pseudotaktowa	!
2GG/	-ste	.	.	.	.	2d\	-ste
!	!	!	!	!LO:TX:t=P:problem=kreska pseudotaktowa	!	!	!
.	.	4A\	.	4c/	.	.	.
=16-	=16-	=16-	=16-	=16-	=16-	=16-	=16-
2GG/	e-	2B-\	e-	4d\	-ste	2d\	e-
.	.	.	.	4e\	.	.	.
!	!	!LO:TX:t=P:problem=kreska pseudotaktowa	!	!	!	!	!
2D\	.	2A\	.	2.f\	e-	2.d\	-lei-
1AA	-lei-	1A	-lei-	.	.	.	.
.	.	.	.	4f\	.	8c#X/L	.
.	.	.	.	.	.	8B-/J	.
.	.	.	.	2e\	-lei-	2c#\	.
=17-	=17-	=17-	=17-	=17-	=17-	=17-	=17-
0Dl;	-son.	0F#Xl;	-son.	0dl;	-son	0dl;	-son
!	!	!LO:LB:g=original	!	!	!	!	!
=18||	=18||	=18||	=18||	=18||	=18||	=18||	=18||
*M2/1	*	*M2/1	*	*M2/1	*	*M2/1	*
*met(C|)	*	*met(C|)	*	*met(C|)	*	*met(C|)	*
*	*	*xywh-#201:1304,1868,5711,755	*	*	*	*	*
1.D	Ky-	2rF	.	2.A/	Ky-	2r	.
.	.	1Fn	Ky-	.	.	1d	Ky-
.	.	.	.	4G/	-ri-	.	.
.	.	.	.	2F/	-e	.	.
!	!	!	!	!LO:TX:t=P:problem=kreska pseudotaktowa	!	!LO:TX:t=P:problem=kreska pseudotaktowa	!
4C/	-ri-	4E/	-ri-	2G/	e-	2d\	-ri-
!LO:TX:t=P:problem=kreska pseudotaktowa	!	!LO:TX:t=P:problem=kreska pseudotaktowa	!	!	!	!	!
4BB-/	.	4D/	.	.	.	.	.
=19-	=19-	=19-	=19-	=19-	=19-	=19-	=19-
2AA/	-e	2E/	-e	2A/	.	2c#X\	-e
!LO:TX:t=P:problem=kreska pseudotaktowa	!	!	!	!	!	!LO:TX:t=P:problem=kreska pseudotaktowa	!
2D\	e-	2F#X/	e-	2A/	.	2d\	e-
2G\	-lei-	2G/	-lei-	2.d\	-lei-	4B-/	-lei-
.	.	.	.	.	.	8A/L	.
.	.	.	.	.	.	8G/J	.
!LO:TX:t=P:problem=kreska pseudotaktowa	!	!LO:TX:t=P:problem=kreska pseudotaktowa	!	!	!	!LO:TX:t=P::problem=kreska pseudotaktowa&colon;między nutą a kropką, połączone ligaturą	!
2F#X\	.	2D/	-son	.	.	2.A/	.
!	!	!	!	!LO:TX:t=P:problem=kreska pseudotaktowa	!	!	!
.	.	.	.	4c\	.	.	.
=20-	=20-	=20-	=20-	=20-	=20-	=20-	=20-
1G	-son	1d	Ky-	1B-	-son	.	.
.	.	.	.	.	.	4G/	.
.	.	.	.	.	.	2.G/	.
!LO:TX:t=P:problem=kreska pseudotaktowa	!	!LO:TX:t=P:problem=kreska pseudotaktowa	!	!LO:TX:t=P:problem=kreska pseudotaktowa	!	!	!
1D	.	1d	-ri-	1A	.	.	.
.	.	.	.	.	.	8F#X/L	.
.	.	.	.	.	.	8E/J	.
!	!	!	!	!	!	!LO:TX:t=P:problem=kreska pseudotaktowa	!
.	.	.	.	.	.	2F#/	.
=21-	=21-	=21-	=21-	=21-	=21-	=21-	=21-
2r	.	2.d\	-e	2rB	.	2G,/	-son
1G	Ky-	.	.	1B-	Ky-	1g	Ky-
.	.	4c\	e-	.	.	.	.
.	.	2B-\	.	.	.	.	.
!	!	!LO:TX:t=P:problem=kreska pseudotaktowa	!	!	!	!LO:TX:t=P:problem=kreska pseudotaktowa	!
4Fny\	-ri-	2c\	.	4A/	.	2g\	-ri-
!LO:TX:t=P:problem=kreska pseudotaktowa	!	!	!	!	!	!	!
4E-X\	.	.	.	4G/	.	.	.
=22-	=22-	=22-	=22-	=22-	=22-	=22-	=22-
2D\	-e	2.d\	-lei-	2A/	.	2f#X\	-e
*	*	*	*	*custos:c	*	*	*
!	!	!	!	!LO:TX:t=P:problem=kreska pseudotaktowa	!	!	!
!	!	!	!	!	!	!LO:TX:t=P:problem=kreska pseudotaktowa	!
2G\	e-	.	.	2Bn/	-ri-	2g\	e-
.	.	4G/	.	.	.	.	.
!	!	!	!	!LO:LB:g=original	!	!	!
*	*	*	*	*xywh-#125:1422,1948,3188,689	*	*	*
2C/	-lei-	1G	.	4c/	-e	4e-X\	-lei-
.	.	.	.	4G/	e-	8d\L	.
.	.	.	.	.	.	8cny\J	.
2BB#X/	.	.	.	4.g\	-lei-	2.d\	.
!	!	!	!	!LO:TX:t=P:problem=kreska pseudotaktowa	!	!	!
.	.	.	.	8f\	.	.	.
=23-	=23-	=23-	=23-	=23-	=23-	=23-	=23-
!	!	!LO:TX:t=P:problem=kreska pseudotaktowa	!	!	!	!	!
1C	.	0G	-son	1e-X	-son	.	.
.	.	.	.	.	.	4c/	.
!	!	!	!	!	!	!LO:TX:t=P::problem=kreska pseudotaktowa&colon;między nutą a kropką, połączone ligaturą	!
.	.	.	.	.	.	2.c/	.
!LO:TX:t=P:problem=kreska pseudotaktowa	!	!	!	!LO:TX:t=P:problem=kreska pseudotaktowa	!	!	!
1GG	-son	.	.	1d	.	.	.
.	.	.	.	.	.	8Bn/L	.
.	.	.	.	.	.	8A/J	.
*	*	*	*	*	*	*custos:c	*
!	!	!	!	!	!	!LO:TX:t=P:problem=kreska pseudotaktowa	!
.	.	.	.	.	.	2B/	.
!	!	!	!	!	!	!LO:LB:g=original	!
=24-	=24-	=24-	=24-	=24-	=24-	=24-	=24-
!	!	!	!	!	!	!LO:TX:t=P:problem=kreska pseudotaktowa	!
*	*	*	*	*	*	*xywh-#41:1301,2104,2283,626	*
2rC	.	2rG	.	4r	.	1c	-son
.	.	.	.	2g\	Ky-	.	.
2.C/	Ky-	1G	Ky-	.	.	.	.
!	!	!	!	!LO:TX:t=P:problem=kreska pseudotaktowa	!	!	!
.	.	.	.	4f\	-ri-	.	.
.	.	.	.	2.e-X\	-e	2.g\	Ky-
4D\	-ri-	.	.	.	.	.	.
!	!	!LO:TX:t=P:problem=kreska pseudotaktowa	!	!	!	!	!
4E-X\	-e	2G/	-ri-	.	.	.	.
!LO:TX:t=P:problem=kreska pseudotaktowa	!	!	!	!	!	!	!
4F\	.	.	.	8d\L	.	8fny\L	-ri-
!	!	!	!	!LO:TX:t=P:problem=kreska pseudotaktowa	!	!LO:TX:t=P:problem=kreska pseudotaktowa	!
.	.	.	.	8c\J	.	8e-X\J	.
=25-	=25-	=25-	=25-	=25-	=25-	=25-	=25-
2G\	e-	2.G/	-e	2Bn/	e-	2d\	-e
!	!	!	!	!LO:TX:t=P:problem=kreska pseudotaktowa	!	!LO:TX:t=P:problem=kreska pseudotaktowa	!
2C/	-le-	.	.	2c/	.	2e-X\	e-
.	.	4G/	e-	.	.	.	.
2C/	-i-	4A/	-lei-	2c/	-lei-	2e-\	-lei-
.	.	4G/	.	.	.	.	.
!	!	!LO:TX:t=P::problem=kreska pseudotaktowa&colon;między nutą a kropką, połączone ligaturą	!	!	!	!	!
2GG/	.	2.G/	.	2B/	.	2d\	.
=26-	=26-	=26-	=26-	=26-	=26-	=26-	=26-
1D	.	.	.	1A	.	1d	.
.	.	8F#X/L	.	.	.	.	.
.	.	8E/J	.	.	.	.	.
.	.	2F#/	.	.	.	.	.
0GGl;	-son.	0Gl;	-son.	0Gl;	-son.	0Bnl;	-son.
==	==	==	==	==	==	==	==
*-	*-	*-	*-	*-	*-	*-	*-
!!!system-decoration: [s1,s2,s3,s4]
!!!RDF**kern: l = terminal long
!!!ENC: Marta Lawrence
!!!END: 2021-03-15
!!!ENC: Andrzej Gręziak
!!!END: 2021-03-01
!!!ENC-iiif: Konrad Tyszka
!!!END-iiif: 2022-09-02
!!!YEC: Copyright 2022 Narodowy Instytut Fryderyka Chopina (https://polishscores.org)
!!!YEM: License CC-BY-4.0 (https://creativecommons.org/licenses/by/4.0)
